svg/free/folder.svg

<svg version="1.1" xmlns="http://www.w3.org/2000/svg" width="24" height="24" viewBox="0 0 24 24">
<title>folder</title>
<path d="M22.125 22.125h-20.25c-0.621-0.001-1.124-0.504-1.125-1.125v-18c0.001-0.621 0.504-1.124 1.125-1.125h8.75c0.001 0 0.001 0 0.002 0 0.465 0 0.863 0.282 1.034 0.685l0.003 0.007 0.961 2.308h9.5c0.621 0.001 1.124 0.504 1.125 1.125v15c-0.001 0.621-0.504 1.124-1.125 1.125h-0zM2.25 20.625h19.5v-14.25h-10.125l-1.25-3h-8.125z"></path>
</svg>

<svg xmlns="http://www.w3.org/2000/svg" width="24" height="24" viewBox="0 0 24 24"><path d="M22.125 22.125H1.875A1.127 1.127 0 01.75 21V3a1.127 1.127 0 011.125-1.125h8.752c.465 0 .863.282 1.034.685l.003.007.961 2.308h9.5A1.127 1.127 0 0123.25 6v15a1.127 1.127 0 01-1.125 1.125zm-19.875-1.5h19.5V6.375H11.625l-1.25-3H2.25z"/></svg>
